Numix-Light/22/status/nm-tech-3g.svg

<svg xmlns="http://www.w3.org/2000/svg" viewBox="0 0 22 22">
 <path d="m 20 20 0 -16 -16 16" style="fill:#353535;fill-opacity:1;stroke:none;fill-rule:evenodd"/>
 <g style="fill:#353535;fill-opacity:1;stroke:none">
  <path d="m 2.663 11 q -0.356 0 -0.759 -0.062 q -0.387 -0.046 -0.759 -0.124 -0.356 -0.077 -0.666 -0.17 -0.31 -0.093 -0.48 -0.17 l 0.372 -1.594 q 0.356 0.155 0.913 0.325 0.573 0.17 1.362 0.17 0.975 0 1.362 -0.418 0.402 -0.418 0.402 -1.037 0 -0.759 -0.604 -1.053 q -0.604 -0.31 -1.533 -0.31 l -0.588 0 0 -1.579 0.712 0 q 0.294 0 0.588 -0.062 q 0.294 -0.062 0.526 -0.201 0.232 -0.139 0.372 -0.372 0.155 -0.232 0.155 -0.588 q 0 -0.526 -0.325 -0.82 -0.31 -0.31 -0.867 -0.31 -0.542 0 -1.084 0.186 q -0.526 0.17 -0.913 0.433 l -0.681 -1.393 q 0.418 -0.279 1.099 -0.557 0.697 -0.294 1.563 -0.294 q 0.805 0 1.393 0.201 0.604 0.201 0.991 0.573 0.387 0.356 0.573 0.851 0.186 0.495 0.186 1.068 0 0.573 -0.325 1.099 -0.325 0.526 -0.867 0.805 0.743 0.31 1.146 0.913 0.418 0.604 0.418 1.44 0 0.666 -0.217 1.223 q -0.217 0.557 -0.666 0.975 -0.449 0.402 -1.146 0.635 -0.697 0.217 -1.656 0.217"/>
 </g>
 <g transform="matrix(1.0495652,0,0,1.0495652,-10.038526,-9.3369112)" style="fill:#353535;fill-opacity:1;stroke:none">
  <path d="m 19.93 11.784 c -0.265 0.013 -0.458 0.041 -0.768 0.206 -0.31 0.165 -0.568 0.398 -0.775 0.697 -0.196 0.289 -0.342 0.685 -0.434 1.054 -0.097 0.388 -0.159 0.795 -0.119 1.193 0.061 0.605 0.145 1.279 0.538 1.743 0.384 0.455 0.894 0.806 1.596 0.806 0.114 0 0.076 -0.007 0.076 -0.007 l 0 -3.339 1.906 0 0 4.571 c -0.227 0.083 -0.577 0.238 -0.88 0.305 -0.411 0.091 -0.744 0.129 -1.258 0.129 -0.599 0 -1.142 -0.103 -1.627 -0.31 -0.475 -0.217 -0.883 -0.532 -1.224 -0.945 -0.341 -0.424 -0.604 -0.945 -0.79 -1.565 -0.186 -0.63 -0.219 -1.059 -0.216 -1.596 0.003 -0.603 0.046 -1.17 0.263 -1.79 0.217 -0.63 0.511 -1.157 0.883 -1.581 0.372 -0.424 0.811 -0.739 1.317 -0.945 0.506 -0.217 0.833 -0.241 1.263 -0.268 0.326 -0.021 0.654 0.027 0.977 0.078 0.262 0.042 0.558 0.114 0.775 0.186 0.217 0.072 0.393 0.15 0.527 0.232 l 0.325 0.186 -0.496 1.519 c -0.227 -0.145 -0.506 -0.274 -0.837 -0.387 -0.345 -0.134 -0.678 -0.187 -1.023 -0.17"/>
 </g>
</svg>

<svg viewBox="0 0 22 22" xmlns="http://www.w3.org/2000/svg">
 <g style="fill:#353535;fill-opacity:1;stroke:none" transform="matrix(0.9 0 0 0.9 0 12.1)">
  <path d="M 2.663,11 Q 2.307,11 1.904,10.938 1.517,10.892 1.145,10.814 0.789,10.737 0.479,10.644 0.169,10.551 -0.001,10.474 L 0.371,8.88 q 0.356,0.155 0.913,0.325 0.573,0.17 1.362,0.17 0.975,0 1.362,-0.418 Q 4.41,8.539 4.41,7.92 4.41,7.161 3.806,6.867 3.202,6.557 2.273,6.557 l -0.588,0 0,-1.579 0.712,0 q 0.294,0 0.588,-0.062 Q 3.279,4.854 3.511,4.715 3.743,4.576 3.883,4.343 4.038,4.111 4.038,3.755 4.038,3.229 3.713,2.935 3.403,2.625 2.846,2.625 2.304,2.625 1.762,2.811 1.236,2.981 0.849,3.244 L 0.168,1.851 Q 0.586,1.572 1.267,1.294 1.964,1 2.83,1 3.635,1 4.223,1.201 4.827,1.402 5.214,1.774 5.601,2.13 5.787,2.625 5.973,3.12 5.973,3.693 5.973,4.266 5.648,4.792 5.323,5.318 4.781,5.597 5.524,5.907 5.927,6.51 6.345,7.114 6.345,7.95 6.345,8.616 6.128,9.173 5.911,9.73 5.462,10.148 5.013,10.55 4.316,10.783 3.619,11 2.66,11"/>
 </g>
 <g>
  <path d="m 20.01 13 c -1.489 0 -2.819 0.929 -3.502 2.305 -0.683 1.376 -0.683 3.01 0 4.391 0.681 1.372 2.01 2.297 3.488 2.303 l 0 0.002 0.014 0 1.986 0 l 0 -4 -2 0 0 1.998 c -0.657 -0.006 -1.308 -0.409 -1.697 -1.193 -0.392 -0.79 -0.392 -1.819 0 -2.609 c 0.392 -0.79 1.049 -1.195 1.711 -1.195 l 1 0 0 -2 z" style="visibility:visible;shape-rendering:auto;color-interpolation-filters:linearRGB;fill:#353535;opacity:1;image-rendering:auto;fill-opacity:1;text-rendering:auto;stroke:none;display:inline;color:#000;fill-rule:nonzero;color-rendering:auto;color-interpolation:sRGB"/>
 </g>
</svg>
